X: 40
T: Old Red Barn, The
R: Jig
Z: <cfalt@trytel.com> www.trytel.com/~cfalt/Fiddle/The_List.abc
M: 6/8
L: 1/8
K: G
D|"G"G,B,D G2B|"D7"AGF "G"G2B|ded "D"cBA|"G"GFE "D"D2D|!
"G"G,B,D G2B|"D"AGF "G"G2B|ded "D"cBA|"G"G3 G2:|!
|:d|"G"g2g f2f|"C"e2e "G"d2B|"D"cAF DFA|"G"edB G2d|!
gag "D"fgf|"C"efe "G"d2B|"D"cAF DEF|"G"G3 G2:|!
|:e|dBG D2e|d3-d2e|dBG D2B|A3-A2 A/B/|
c2A F2d|e2d ^c2d|fed cBA|G3-G2:|
%%newpage
%%textfont * 14
%%begintext justify
%%32 Bar Reel
%%endtext
